X:1
T:Wildwood Flower
T:Wildwood Flower
T:for voice and tenor viol
T:arr. David Saphra
T:nalvi.org
%%score 1 ( 2 3 4 )
L:1/8
Q:1/4=66
M:2/4
K:Eb
V:1 treble-8 nm="Violin"
V:2 tab stafflines=6 strings=G1,C2,F2,A2,D3,G3 nostems nm="Viola da gamba" snm="Vla. d. g."
V:3 tab stafflines=6 strings=G1,C2,F2,A2,D3,G3 nostems 
V:4 tab stafflines=6 strings=G1,C2,F2,A2,D3,G3 nostems 
V:1
 GA |[M:2/4] B2 ce | G2 AG | F2 GF | E4- | E2 GA | B2 ce | G2 AG | F2 GF | E4- | E2 Be | g2 fe | %12
w: Oh, I'll|twine with my|tan- gled and|man- gled white|hair|* With the|ro- ses so|red and the|li- lies so|fair|* And the|myr- tle so|
w: I will|dance, I will|sing, and my|love shall be|gay|* I will|charm ev'- ry|heart, in her|ground I will|sway|* When I|woke from my|
w: Oh, she|taught me to|love her and|pro- mised to|love|* And to|che- rish me|o- ver all|o- thers a-|bove|* How my|heart is now|
 e2 BB | e2 dc | B3 B | G2 G>F | GB-BG | F2 GF | E4- | E2 :| GA | B2 ce | G2 AG | F2 GF | F E3 | %25
w: bright with the|e- mer- ald|dew The|pale a- ma-|ni- ta * and|i- slip like|blue||Oh she|taught me to|love * her|called me her|flow- er|
w: drea- ming my|i- dol was-|clay All|por- tion of|lo- ve * had|all flown a-|way|||||||
w: won- d'ring no|mi- sery can|tell She's|left me no|war- ning, * no|words of fare-|well|||||||
 z2 GA | B2 ce | G2 AG | F2 GF | F E3 | z2 Be | gf ed | ed cB | e2 dc | c B3- | B2 z B | G2 G>F | %37
w: That was|bloom- ing to|cheer her through|life's drear- y|hou- r|How I'm|long- ing now to|see her and re-|gret the dark|hou- r|* She's|gone and ne-|
w: ||||||||||||
w: ||||||||||||
 GB-BG | F2 GF | F !fermata!E3- | E4- | E2 |] %42
w: glec- ted * her|pale wild- wood|flow- er|||
w: |||||
w: |||||
V:2
 x [!5!E,,!4!F,,] |[M:2/4] [!5!E,,!4!G,,]2 x !5!C,, | !5!E,,4 | !5!D,,2 !5!E,, !5!D,, | %4
 (3([!4!G,,!3!B,,] [!4!A,,!3!C,] [!4!G,,!3!B,,] (3:2:2[!4!A,,!3!C,]2 [!4!G,,!3!B,,]-) | %5
 [!4!G,,!3!B,,]- [!4!G,,!3!B,,] x !4!F,, | !4!G,,2 (!3!B,, !3!C,) | !2!E,4 | %8
 !5!D,,2 !5!E,, !5!D,, | %9
 (3([!4!G,,!3!B,,] [!4!A,,!3!C,] [!4!G,,!3!B,,]) [!4!A,,!3!C,] [!4!G,,-!3!B,,] | !4!G,,2 !4!G,,2 | %11
 !2!E,2 x2 | !3!B,,2 !5!E,,2 | !5!C,,2 !4!F,, !5!E,, | %14
 (3[!5!D,,!4!F,,]/ [!5!E,,!4!G,,]/ [!5!D,,!4!F,,]/ (3:2:2[!5!E,,!4!G,,]/ !4!F,,- (3:2:1!4!F,,3/2 !4!G,, | %15
 !3!B,,4 | (!3!B,, (!4!G,,2) !3!B,,) | (!5!D,,2 (!5!E,,) !5!D,,) | %18
 (3([!4!G,,!3!B,,] [!4!A,,!3!C,] [!4!G,,!3!B,,]) [!4!A,,!3!C,] [!4!G,,-!3!B,,] | !4!G,,2 :| %20
 x !4!F,, | !4!G,,2 x !5!C,, | !5!E,,4 | !5!D,,2 !5!E,, !5!D,, | %24
 [!4!A,,!3!B,,] [!4!G,,!3!B,,] !3!B,, !4!A,, | !4!G,, !4!F,, x !4!F,, | !4!G,,2 x !5!C,, | %27
 !5!E,,4 | !5!D,,2 !5!E,, !5!D,, | [!4!A,,!3!B,,] [!4!G,,!3!B,,] !3!B,, !4!A,, | %30
 !4!G,, !4!A,, !4!G,, !3!B,, | !2!E, !2!D, !3!C, !3!B,, | !3!C, !3!B,, !4!A,, !4!G,, | %33
 !5!C,,2 !4!F,, !5!E,, | !4!F,,2 !5!C,, !5!D,, | %35
 [!6!C,,!5!E,,!4!F,,] !4!F,, !4!G,,/ !4!F,,/ !4!G,,/ !4!A,,/ | !4!B,,4 | %37
 (!4!B,, (!4!G,,2) !3!B,,) | (!5!D,,2 (!5!E,,) !5!D,,) | %39
 [!2!A,!1!C] [!2!G,!1!B,] (3[!2!F,!1!A,] [!2!E,!1!G,] [!4!A,,!3!B,,] | !3!C, !fermata!!3!B,,3- | %41
 !3!B,,2 |] %42
V:3
 !5!E,,2- |[M:2/4] !6!E,,2 !6!A,,,2 | !6!B,,,2 !5!F,, !6!B,,, | !6!B,,,4 | !5!E,, x x2 | %5
 x2 !5!E,,2 | !5!E,,2 !4!A,,2 | (!3!B,,2 (!3!C,) !3!B,,) | !6!B,,,4 | !5!E,, x x2 | x2 !5!E,, x | %11
 [!5!E,,!4!G,,]2 (!4!A,, !4!G,,) | !4!G,,2 !6!G,,,2 | !6!A,,,2 !6!B,,,2 | %14
 x4/3 (3:2:1!5!D,,- !5!D,, x | x2 (!5!E,,3/2 !5!D,,/) | !5!E,,4 | !6!B,,,4 | !5!E,, x x2 | x2 :| %20
 !5!E,,2- | !5!E,,2 !6!A,,,2 | !6!B,,,2 !5!C,, !6!B,,, | !6!B,,,4 | !5!D,, !5!E,, !4!G,, !5!F,, | %25
 !5!E,,2 !5!E,,2- | !5!E,,2 !6!A,,,2 | !6!B,,,2 !5!C,, !6!B,,, | !6!B,,,4 | %29
 !5!D,, !5!E,, !4!G,, !5!F,, | !5!E,, !5!F,, !5!E,, x | !3!B,,2 !4!A,,2 | !4!A,, !4!F,, !5!E,,2 | %33
 !6!A,,,2 !6!B,,,2 | !5!E,, !5!D,, !6!A,,, !6!B,,, | x [!6!B,,,!5!D,,] !5!E,,2 | %36
 !5!E,,2 (!5!E,,3/2 !5!D,,/) | !5!E,,4 | !6!B,,,4 | x4 | !4!A,, !4!G,, [!5!E,,!4!G,,]2 | x2 |] %42
V:4
 x2 |[M:2/4] x4 | x4 | x4 | x4 | x4 | x4 | x4 | x4 | x4 | x2 x !3!B,, | !3!B,,4 | x4 | x4 | x4 | %15
 x4 | x4 | x4 | x4 | x2 :| x2 | x4 | x4 | x4 | x4 | x4 | x4 | x4 | x4 | x4 | !6!B,,,2 x2 | x4 | %32
 x2 !6!B,,,2 | x4 | !6!B,,,2 x2 | x4 | x4 | x4 | x4 | x4 | x4 | x2 |] %42

